overrides/.icons/class/cleric.svg

<?xml version="1.0" encoding="UTF-8"?>
<svg id="svg8" version="1.1" viewBox="0 0 6.35 6.35" xmlns="http://www.w3.org/2000/svg" xmlns:cc="http://creativecommons.org/ns#" xmlns:dc="http://purl.org/dc/elements/1.1/" xmlns:rdf="http://www.w3.org/1999/02/22-rdf-syntax-ns#">
 <defs id="defs2">
  <clipPath id="clipPath915">
   <path id="path913" d="m0 2020h2020v-2020h-2020z"/>
  </clipPath>
 </defs>
 <metadata id="metadata5">
  <rdf:RDF>
   <cc:Work rdf:about="">
    <dc:format>image/svg+xml</dc:format>
    <dc:type rdf:resource="http://purl.org/dc/dcmitype/StillImage"/>
   </cc:Work>
  </rdf:RDF>
 </metadata>
 <g id="layer1" transform="translate(551.17 531.32)">
  <g id="g909" transform="matrix(.0045782 0 0 -.0045731 -552.62 -523.54)" stroke-width="77.099">
   <g id="g911" clip-path="url(#clipPath915)" stroke-width="77.099">
    <g id="g917" transform="translate(1124.2 642.79)">
     <path id="path919" d="m0 0-4.207 8.2c-43.814-13.903-85.827-17.782-121.18-17.223-30.034 1.315-63.73 6.113-98.746 17.223l-4.207-8.2s110.74-75.341 110.74-242.42h7.658c0 167.08 109.95 242.42 109.95 242.42"/>
    </g>
    <g id="g921" transform="translate(645.6 893.35)">
     <path id="path923" d="m0 0 8.2 4.207c-13.903 43.814-17.782 85.827-17.223 121.18 1.315 30.034 6.113 63.73 17.223 98.746l-8.2 4.207s-75.341-110.74-242.42-110.74v-7.658c167.08 0 242.42-109.95 242.42-109.95"/>
    </g>
    <g id="g925" transform="translate(1374.4 1121.7)">
     <path id="path927" d="m0 0-8.2-4.207c13.903-43.814 17.782-85.827 17.223-121.18-1.315-30.034-6.113-63.73-17.223-98.746l8.2-4.207s75.341 110.74 242.42 110.74v7.658c-167.08 0-242.42 109.95-242.42 109.95"/>
    </g>
    <g id="g929" transform="translate(876.55 1226.1)">
     <path id="path931" d="m0 0v-87.88h-81.371l-263.64 314.09z"/>
    </g>
    <g id="g933" transform="translate(788.67 876.22)">
     <path id="path935" d="m0 0h87.88v-81.371l-314.09-263.64z"/>
    </g>
    <g id="g937" transform="translate(1306.5 1100)">
     <path id="path939" d="m0 0-37.835-19.834h-186.02v186.02l19.834 37.835s-27.158 9.154-92.458 9.154c-54.315 0-92.457-9.154-92.457-9.154l19.834-37.835v-186.02h-186.02l-37.835 19.834s-9.154-27.157-9.154-92.458c0-54.314 9.154-92.457 9.154-92.457l37.835 19.834h186.02v-186.02l-19.834-37.835s27.157-9.154 92.457-9.154c54.315 0 92.458 9.154 92.458 9.154l-19.834 37.835v186.02h186.02l37.835-19.834s9.154 27.158 9.154 92.457c0 54.316-9.154 92.458-9.154 92.458"/>
    </g>
    <g id="g941" transform="translate(1143.1 1226.1)">
     <path id="path943" d="m0 0v-87.88h81.371l263.64 314.09z"/>
    </g>
    <g id="g945" transform="translate(1231 876.22)">
     <path id="path947" d="m0 0h-87.88v-81.371l314.09-263.64z"/>
    </g>
    <g id="g949" transform="translate(895.83 1372.9)">
     <path id="path951" d="m0 0 4.207-8.199c43.814 13.902 85.827 17.781 121.18 17.222 30.034-1.315 63.73-6.112 98.746-17.222l4.207 8.199s-110.74 75.341-110.74 242.42h-7.658c0-167.08-109.95-242.42-109.95-242.42"/>
    </g>
   </g>
  </g>
 </g>
</svg>

<?xml version="1.0" encoding="UTF-8" standalone="no"?>
<svg

   viewBox="0 0 6.3499997 6.3500002"
   version="1.1"
   id="svg8"
   inkscape:version="1.3.2 (091e20e, 2023-11-25, custom)"
   sodipodi:docname="class-cleric.svg"
   xmlns:inkscape="http://www.inkscape.org/namespaces/inkscape"
   xmlns:sodipodi="http://sodipodi.sourceforge.net/DTD/sodipodi-0.dtd"
   xmlns="http://www.w3.org/2000/svg"
   xmlns:svg="http://www.w3.org/2000/svg"
   xmlns:rdf="http://www.w3.org/1999/02/22-rdf-syntax-ns#"
   xmlns:cc="http://creativecommons.org/ns#"
   xmlns:dc="http://purl.org/dc/elements/1.1/">
  <defs
     id="defs2">
    <clipPath
       clipPathUnits="userSpaceOnUse"
       id="clipPath18">
      <path
         d="M 0,2020 H 2020 V 0 H 0 Z"
         id="path16" />
    </clipPath>
    <clipPath
       clipPathUnits="userSpaceOnUse"
       id="clipPath62">
      <path
         d="M 0,2020 H 2020 V 0 H 0 Z"
         id="path60" />
    </clipPath>
    <clipPath
       clipPathUnits="userSpaceOnUse"
       id="clipPath148">
      <path
         d="M 0,2020 H 2020 V 0 H 0 Z"
         id="path146" />
    </clipPath>
    <clipPath
       clipPathUnits="userSpaceOnUse"
       id="clipPath196">
      <path
         d="M 0,2020 H 2020 V 0 H 0 Z"
         id="path194" />
    </clipPath>
    <clipPath
       clipPathUnits="userSpaceOnUse"
       id="clipPath343">
      <path
         d="M 0,2020 H 2020 V 0 H 0 Z"
         id="path341" />
    </clipPath>
    <clipPath
       clipPathUnits="userSpaceOnUse"
       id="clipPath387">
      <path
         d="M 0,2020 H 2020 V 0 H 0 Z"
         id="path385" />
    </clipPath>
    <clipPath
       clipPathUnits="userSpaceOnUse"
       id="clipPath506">
      <path
         d="M 0,2020 H 2020 V 0 H 0 Z"
         id="path504" />
    </clipPath>
    <clipPath
       clipPathUnits="userSpaceOnUse"
       id="clipPath530">
      <path
         d="M 0,2020 H 2020 V 0 H 0 Z"
         id="path528" />
    </clipPath>
    <clipPath
       clipPathUnits="userSpaceOnUse"
       id="clipPath645">
      <path
         d="M 0,2020 H 2020 V 0 H 0 Z"
         id="path643" />
    </clipPath>
    <clipPath
       clipPathUnits="userSpaceOnUse"
       id="clipPath673">
      <path
         d="M 0,2020 H 2020 V 0 H 0 Z"
         id="path671" />
    </clipPath>
    <clipPath
       clipPathUnits="userSpaceOnUse"
       id="clipPath776">
      <path
         d="M 0,2020 H 2020 V 0 H 0 Z"
         id="path774" />
    </clipPath>
    <clipPath
       clipPathUnits="userSpaceOnUse"
       id="clipPath796">
      <path
         d="M 0,2020 H 2020 V 0 H 0 Z"
         id="path794" />
    </clipPath>
    <clipPath
       clipPathUnits="userSpaceOnUse"
       id="clipPath915">
      <path
         d="M 0,2020 H 2020 V 0 H 0 Z"
         id="path913" />
    </clipPath>
    <clipPath
       clipPathUnits="userSpaceOnUse"
       id="clipPath959">
      <path
         d="M 0,2020 H 2020 V 0 H 0 Z"
         id="path957" />
    </clipPath>
  </defs>
  <sodipodi:namedview
     id="base"
     pagecolor="#ffffff"
     bordercolor="#666666"
     borderopacity="1.0"
     inkscape:pageopacity="0.0"
     inkscape:pageshadow="2"
     inkscape:zoom="7.3190208"
     inkscape:cx="15.712484"
     inkscape:cy="9.632436"
     inkscape:document-units="px"
     inkscape:current-layer="layer1"
     inkscape:document-rotation="0"
     showgrid="false"
     inkscape:window-width="1360"
     inkscape:window-height="715"
     inkscape:window-x="-8"
     inkscape:window-y="-8"
     inkscape:window-maximized="1"
     showborder="true"
     inkscape:showpageshadow="false"
     inkscape:pagecheckerboard="true"
     units="px"
     inkscape:deskcolor="#d1d1d1" />
  <metadata
     id="metadata5">
    <rdf:RDF>
      <cc:Work
         rdf:about="">
        <dc:format>image/svg+xml</dc:format>
        <dc:type
           rdf:resource="http://purl.org/dc/dcmitype/StillImage" />
      </cc:Work>
    </rdf:RDF>
  </metadata>
  <g
     inkscape:label="Layer 1"
     inkscape:groupmode="layer"
     id="layer1"
     transform="translate(551.17334,531.32252)">
    <g
       id="g909"
       transform="matrix(0.00457815,0,0,-0.00457309,-552.62227,-523.53847)"
       style="stroke-width:77.0993">
      <g
         id="g911"
         clip-path="url(#clipPath915)"
         style="stroke-width:77.0993">
        <g
           id="g917"
           transform="translate(1124.1724,642.7925)"
           style="stroke-width:77.0993">
          <path
             d="M 0,0 -4.207,8.2 C -48.021,-5.703 -90.034,-9.582 -125.392,-9.023 -155.426,-7.708 -189.122,-2.91 -224.138,8.2 L -228.345,0 c 0,0 110.739,-75.341 110.739,-242.422 h 7.658 C -109.948,-75.341 0,0 0,0"
             style="fill-opacity:1;fill-rule:nonzero;stroke:none;stroke-width:77.0993"
             id="path919" />
        </g>
        <g
           id="g921"
           transform="translate(645.5996,893.3462)"
           style="stroke-width:77.0993">
          <path
             d="M 0,0 8.2,4.207 C -5.703,48.021 -9.582,90.034 -9.023,125.392 -7.708,155.426 -2.91,189.122 8.2,224.138 L 0,228.345 c 0,0 -75.341,-110.739 -242.422,-110.739 v -7.658 C -75.341,109.948 0,0 0,0"
             style="fill-opacity:1;fill-rule:nonzero;stroke:none;stroke-width:77.0993"
             id="path923" />
        </g>
        <g
           id="g925"
           transform="translate(1374.4004,1121.6914)"
           style="stroke-width:77.0993">
          <path
             d="M 0,0 -8.2,-4.207 C 5.703,-48.021 9.582,-90.034 9.023,-125.392 7.708,-155.426 2.91,-189.122 -8.2,-224.138 l 8.2,-4.207 c 0,0 75.341,110.739 242.422,110.739 v 7.658 C 75.341,-109.948 0,0 0,0"
             style="fill-opacity:1;fill-rule:nonzero;stroke:none;stroke-width:77.0993"
             id="path927" />
        </g>
        <g
           id="g929"
           transform="translate(876.5518,1226.084)"
           style="stroke-width:77.0993">
          <path
             d="M 0,0 V -87.88 H -81.371 L -345.012,226.211 Z"
             style="fill-opacity:1;fill-rule:nonzero;stroke:none;stroke-width:77.0993"
             id="path931" />
        </g>
        <g
           id="g933"
           transform="translate(788.6714,876.2241)"
           style="stroke-width:77.0993">
          <path
             d="M 0,0 H 87.88 V -81.371 L -226.211,-345.012 Z"
             style="fill-opacity:1;fill-rule:nonzero;stroke:none;stroke-width:77.0993"
             id="path935" />
        </g>
        <g
           id="g937"
           transform="translate(1306.4775,1099.9766)"
           style="stroke-width:77.0993">
          <path
             d="m 0,0 -37.835,-19.834 h -186.019 v 186.019 l 19.834,37.835 c 0,0 -27.158,9.154 -92.458,9.154 -54.315,0 -92.457,-9.154 -92.457,-9.154 l 19.834,-37.835 V -19.834 H -555.12 L -592.955,0 c 0,0 -9.154,-27.157 -9.154,-92.458 0,-54.314 9.154,-92.457 9.154,-92.457 l 37.835,19.834 h 186.019 V -351.1 l -19.834,-37.835 c 0,0 27.157,-9.154 92.457,-9.154 54.315,0 92.458,9.154 92.458,9.154 l -19.834,37.835 v 186.019 H -37.835 L 0,-184.915 c 0,0 9.154,27.158 9.154,92.457 C 9.154,-38.142 0,0 0,0"
             style="fill-opacity:1;fill-rule:nonzero;stroke:none;stroke-width:77.0993"
             id="path939" />
        </g>
        <g
           id="g941"
           transform="translate(1143.1255,1226.084)"
           style="stroke-width:77.0993">
          <path
             d="M 0,0 V -87.88 H 81.371 L 345.012,226.211 Z"
             style="fill-opacity:1;fill-rule:nonzero;stroke:none;stroke-width:77.0993"
             id="path943" />
        </g>
        <g
           id="g945"
           transform="translate(1231.0059,876.2241)"
           style="stroke-width:77.0993">
          <path
             d="M 0,0 H -87.88 V -81.371 L 226.211,-345.012 Z"
             style="fill-opacity:1;fill-rule:nonzero;stroke:none;stroke-width:77.0993"
             id="path947" />
        </g>
        <g
           id="g949"
           transform="translate(895.8276,1372.936)"
           style="stroke-width:77.0993">
          <path
             d="M 0,0 4.207,-8.199 C 48.021,5.703 90.034,9.582 125.392,9.023 155.426,7.708 189.122,2.911 224.138,-8.199 L 228.345,0 c 0,0 -110.739,75.341 -110.739,242.422 h -7.658 C 109.948,75.341 0,0 0,0"
             style="fill-opacity:1;fill-rule:nonzero;stroke:none;stroke-width:77.0993"
             id="path951" />
        </g>
      </g>
    </g>
  </g>
</svg>
